assets/features/channel/other/papara.svg

<svg width="80" height="80" viewBox="0 0 80 80" fill="none" xmlns="http://www.w3.org/2000/svg">
<rect width="80" height="80" rx="8" fill="url(#paint0_linear_2497_22881)"/>
<path fill-rule="evenodd" clip-rule="evenodd" d="M69.0536 37.8472C68.459 38.1138 67.8393 38.3204 67.2036 38.4636L66.1072 38.7377C65.5589 38.8749 65.1477 39.0804 64.8737 39.3541C64.6684 39.697 64.5313 40.0393 64.5313 40.3805C64.5318 40.8042 64.6766 41.2149 64.9419 41.5452C65.216 41.8192 65.6272 41.9563 66.1754 41.9563C67.0666 41.9563 67.7518 41.6823 68.2313 41.2028C68.7107 40.7234 68.9847 39.9693 68.9847 39.0782L69.0536 37.8452V37.8472ZM69.8071 43.7401C69.1449 44.0793 68.4238 44.2885 67.683 44.3565C67.0236 44.4388 66.3603 44.4845 65.696 44.4936C64.6359 44.5015 63.6018 44.1649 62.7496 43.5341C61.9273 42.9177 61.4473 41.8895 61.4473 40.4506C61.4473 39.08 61.8584 38.1213 62.6125 37.573C63.3665 37.0248 64.3942 36.6136 65.5589 36.4078C65.7641 36.4078 65.9701 36.4078 66.1072 36.3395C66.3812 36.2707 66.5866 36.2707 66.8607 36.2024C68.2313 35.9968 68.9155 35.5856 68.9135 34.9689C68.9135 34.4895 68.6394 34.1466 68.16 34.0095C67.7168 33.8694 67.2542 33.8002 66.7894 33.8043C66.3916 33.7997 65.9964 33.8694 65.6242 34.0095C65.2828 34.1485 65.0126 34.4202 64.8755 34.7624H61.7215C61.8586 33.8036 62.2697 32.9124 63.0238 32.296C63.8491 31.5425 65.079 31.2002 66.6554 31.2002C68.4366 31.2002 69.739 31.4743 70.6294 32.0908C71.52 32.7072 72 33.5983 72 34.7624V39.1483C72 40.45 71.7948 41.4095 71.3148 42.163C71.0406 42.8489 70.4906 43.3966 69.8071 43.7401ZM54.3898 44.2883V38.1214C54.3898 36.8879 54.595 35.7914 54.938 34.9691C55.2811 34.1468 55.7604 33.4597 56.4474 32.9162C57.0742 32.4266 57.7984 32.0766 58.5715 31.8898C59.3938 31.6839 60.2162 31.5469 61.0385 31.5469H61.4491V34.9691H60.3514C59.4603 34.9691 58.775 35.1743 58.2956 35.6543C57.8844 36.1337 57.6104 36.819 57.6104 37.7784V44.3596L54.3899 44.2913L54.3898 44.2883ZM50.8275 37.8472C50.233 38.114 49.6132 38.3206 48.9775 38.4636L47.8811 38.7377C47.3328 38.8749 46.922 39.0804 46.6482 39.3541C46.4422 39.697 46.3053 40.0393 46.3053 40.3805C46.3057 40.8042 46.4506 41.2152 46.7164 41.5452C46.9905 41.8192 47.4017 41.9563 47.9499 41.9563C48.8405 41.9563 49.5258 41.6823 50.0058 41.2028C50.4858 40.7234 50.7593 39.9693 50.7593 39.0782L50.8275 37.8452V37.8472ZM51.5816 43.7401C50.9194 44.0793 50.1983 44.2885 49.4575 44.3565C48.798 44.4387 48.1344 44.4845 47.4699 44.4936C46.4098 44.5015 45.3757 44.1649 44.5235 43.5341C43.7012 42.9177 43.2218 41.8895 43.2218 40.4506C43.2218 39.08 43.6329 38.1213 44.3864 37.573C45.1399 37.0248 46.1682 36.6136 47.3328 36.4078C47.5388 36.4078 47.744 36.4078 47.8811 36.3395C48.1552 36.2707 48.3641 36.2707 48.6352 36.2024C50.0058 35.9968 50.69 35.5856 50.688 34.9689C50.688 34.4895 50.4145 34.1466 49.9345 34.0095C49.4913 33.8694 49.0287 33.8002 48.5639 33.8043C48.1663 33.7997 47.7713 33.8694 47.3993 34.0095C47.0565 34.1477 46.7849 34.4195 46.6469 34.7624H43.6316C43.7687 33.8036 44.1799 32.9124 44.9334 32.296C45.7557 31.5425 46.9892 31.2002 48.565 31.2002C50.3468 31.2002 51.6486 31.4743 52.5397 32.0908C53.4309 32.7072 53.9103 33.6002 53.9103 34.7631V39.149C53.9103 40.4508 53.7044 41.4102 53.2251 42.1637C52.8139 42.8489 52.2657 43.3972 51.5804 43.7401H51.5816ZM39.7948 37.9155C39.7948 36.682 39.5888 35.7226 39.1095 35.0374C38.6301 34.3521 37.9443 34.0109 37.0537 34.0109C36.2314 34.0109 35.5443 34.3538 35.0667 35.0374C34.6556 35.6545 34.3815 36.6137 34.3815 37.9155C34.3815 39.149 34.5867 40.0396 35.0667 40.6567C35.5462 41.3409 36.2304 41.6831 37.1196 41.6831C37.8736 41.6831 38.629 41.3408 39.0384 40.6567C39.5184 39.9715 39.7925 39.0803 39.7925 37.9155H39.7948ZM34.3812 47.303C34.3869 47.7405 34.2137 48.1615 33.9018 48.4682C33.6277 48.8106 33.2166 48.9477 32.7371 48.9477H31.1607V37.0249C31.1607 34.7631 31.7771 33.2562 33.0789 32.4362C34.3124 31.6115 35.8201 31.2003 37.2588 31.2003C38.0811 31.2003 38.9035 31.3374 39.6577 31.6798C40.3985 31.9416 41.0591 32.3902 41.5758 32.9821C42.5358 34.2156 43.0153 35.8597 43.0153 37.7815C43.0153 39.7685 42.5323 41.4132 41.5758 42.6467C40.6194 43.8802 39.4517 44.4936 37.9472 44.4936C37.2619 44.4936 36.5083 44.3565 35.8943 44.0824C35.2772 43.7401 34.7291 43.2601 34.3849 42.573V47.303H34.3812ZM27.6661 37.8472C27.0713 38.1139 26.4513 38.3204 25.8155 38.4636L24.7196 38.6689C24.1714 38.8057 23.7602 39.0113 23.4862 39.286C23.2802 39.6283 23.1433 39.9712 23.1433 40.3124C23.1437 40.7363 23.2887 41.1474 23.5544 41.4776C23.8285 41.7517 24.2396 41.8886 24.7879 41.8882C25.6791 41.8882 26.3637 41.6147 26.8437 41.1347C27.3237 40.6547 27.5972 39.9012 27.5972 39.0106L27.6661 37.846V37.8472ZM28.4196 43.7401C27.7569 44.0794 27.0356 44.2886 26.2943 44.3565C25.635 44.4388 24.9717 44.4845 24.3073 44.4936C23.2472 44.5015 22.2131 44.1649 21.3609 43.5341C20.5386 42.9177 20.0586 41.8895 20.0586 40.4506C20.0586 39.08 20.4698 38.1213 21.2238 37.573C21.9779 37.0248 23.005 36.6136 24.1702 36.4078C24.3755 36.4078 24.5814 36.4078 24.7185 36.3395C24.9237 36.2707 25.1979 36.2707 25.472 36.2024C26.8426 35.9968 27.5278 35.5856 27.5278 34.9689C27.5278 34.4895 27.2538 34.1466 26.7738 34.0095C26.3307 33.8694 25.8684 33.8002 25.4037 33.8043C25.0059 33.7997 24.6107 33.8694 24.2385 34.0095C23.8958 34.1477 23.6241 34.4195 23.4862 34.7624H20.3338C20.4709 33.8036 20.8821 32.9124 21.6361 32.296C22.4579 31.5425 23.6914 31.2002 25.2678 31.2002C27.049 31.2002 28.3513 31.4743 29.2417 32.0908C30.1323 32.7072 30.6123 33.6002 30.6123 34.7631V39.149C30.6123 40.4508 30.4064 41.4102 29.9271 42.1637C29.653 42.8489 29.1048 43.3972 28.4177 43.7401H28.4196ZM11.2205 47.3025C11.2262 47.7402 11.0531 48.1612 10.741 48.4684C10.467 48.8107 10.0558 48.9478 9.57582 48.9478H8V37.025C8 34.7627 8.61639 33.2563 9.91886 32.434C11.1524 31.6116 12.6593 31.2005 14.0982 31.2005C14.9205 31.2005 15.7423 31.3376 16.4964 31.6799C17.2373 31.9417 17.8982 32.3903 18.4152 32.9822C19.3741 34.2157 19.8541 35.8598 19.8541 37.7787C19.8541 39.7657 19.3711 41.4103 18.4152 42.6438C17.4595 43.8773 16.2906 44.4938 14.7836 44.4938C14.0983 44.4938 13.3441 44.3567 12.7307 44.0827C12.1136 43.7404 11.5655 43.2604 11.2213 42.5733V47.3033L11.2205 47.3025ZM16.5652 37.9149C16.5652 36.6814 16.36 35.722 15.88 35.0368C15.4 34.3516 14.7153 34.0104 13.8271 34.0104C13.0048 34.0104 12.3177 34.3533 11.8396 35.0368C11.429 35.6539 11.1549 36.6132 11.1549 37.9149C11.1549 39.1484 11.3601 40.039 11.8396 40.6561C12.3194 41.3404 13.0047 41.6825 13.8954 41.6825C14.6495 41.6825 15.4048 41.3402 15.8143 40.6561C16.3625 39.9709 16.5678 39.0797 16.5678 37.9149H16.5652Z" fill="white"/>
<defs>
<linearGradient id="paint0_linear_2497_22881" x1="16.739" y1="130.65" x2="110.089" y2="99.7992" gradientUnits="userSpaceOnUse">
<stop stop-color="#E14A55"/>
<stop offset="1" stop-color="#8E278F"/>
</linearGradient>
</defs>
</svg>

<svg xmlns="http://www.w3.org/2000/svg" width="80" height="80" fill="none" viewBox="0 0 80 80"><rect width="80" height="80" fill="url(#a)" rx="8"/><path fill="#fff" fill-rule="evenodd" d="M69.054 37.847a10 10 0 0 1-1.85.617l-1.097.274q-.823.205-1.233.616c-.206.343-.343.685-.343 1.026 0 .424.146.835.41 1.165q.412.411 1.234.411c.892 0 1.577-.274 2.056-.753.48-.48.754-1.234.754-2.125l.069-1.233zm.753 5.893a5.8 5.8 0 0 1-2.124.616q-.99.124-1.987.138a4.9 4.9 0 0 1-2.946-.96c-.823-.616-1.303-1.645-1.303-3.083 0-1.371.411-2.33 1.165-2.878.755-.548 1.782-.96 2.947-1.165.205 0 .411 0 .548-.069.274-.068.48-.068.754-.137q2.055-.308 2.052-1.233c0-.48-.274-.822-.753-.96a4.4 4.4 0 0 0-1.37-.205 3.2 3.2 0 0 0-1.166.206c-.341.139-.611.41-.748.752H61.72c.138-.958.549-1.85 1.303-2.466.825-.753 2.055-1.096 3.631-1.096 1.782 0 3.084.274 3.974.89.891.617 1.371 1.508 1.371 2.672v4.386c0 1.302-.205 2.261-.685 3.015-.274.686-.824 1.234-1.508 1.577m-15.417.548v-6.167c0-1.233.205-2.33.548-3.152s.822-1.51 1.51-2.053a5.6 5.6 0 0 1 2.124-1.026c.822-.206 1.644-.343 2.466-.343h.411v3.422H60.35c-.89 0-1.576.205-2.055.685-.412.48-.686 1.165-.686 2.124v6.582l-3.22-.069zm-3.562-6.44a9.7 9.7 0 0 1-1.85.616l-1.097.274q-.822.205-1.233.616c-.206.343-.343.685-.343 1.026 0 .424.146.835.411 1.165q.412.411 1.234.411c.89 0 1.576-.274 2.056-.753.48-.48.753-1.234.753-2.125l.069-1.233zm.754 5.892a5.8 5.8 0 0 1-2.124.616q-.991.124-1.988.138a4.9 4.9 0 0 1-2.947-.96c-.822-.616-1.301-1.645-1.301-3.083 0-1.371.41-2.33 1.164-2.878s1.782-.96 2.947-1.165c.206 0 .411 0 .548-.069.274-.068.483-.068.754-.137q2.055-.308 2.053-1.233c0-.48-.274-.822-.754-.96a4.4 4.4 0 0 0-1.37-.205 3.2 3.2 0 0 0-1.165.206c-.343.138-.614.41-.752.752h-3.015c.137-.958.548-1.85 1.301-2.466.823-.753 2.056-1.096 3.632-1.096 1.782 0 3.084.274 3.975.89.89.617 1.37 1.51 1.37 2.673v4.386c0 1.302-.206 2.261-.685 3.015-.411.685-.96 1.233-1.645 1.576zm-11.787-5.824c0-1.234-.206-2.193-.686-2.879q-.72-1.027-2.055-1.026c-.823 0-1.51.343-1.987 1.026-.411.617-.685 1.577-.685 2.879 0 1.233.205 2.124.685 2.74q.719 1.027 2.053 1.027c.754 0 1.509-.342 1.918-1.026.48-.685.755-1.577.755-2.741zm-5.414 9.387a1.6 1.6 0 0 1-.48 1.165c-.273.343-.684.48-1.164.48H31.16V37.025c0-2.262.616-3.769 1.918-4.589 1.233-.825 2.741-1.236 4.18-1.236.822 0 1.645.137 2.399.48.74.262 1.401.71 1.918 1.302.96 1.234 1.44 2.878 1.44 4.8 0 1.987-.484 3.631-1.44 4.865-.957 1.233-2.124 1.847-3.629 1.847-.685 0-1.439-.138-2.053-.412-.617-.342-1.165-.822-1.51-1.509v4.73zm-6.715-9.456a10 10 0 0 1-1.85.617l-1.096.205q-.823.205-1.234.617c-.206.342-.343.685-.343 1.026 0 .424.146.835.411 1.166q.412.41 1.234.41c.891 0 1.576-.273 2.056-.753s.753-1.234.753-2.124l.07-1.165zm.754 5.893a5.8 5.8 0 0 1-2.126.616q-.989.124-1.987.138a4.9 4.9 0 0 1-2.946-.96c-.822-.616-1.302-1.645-1.302-3.083 0-1.371.41-2.33 1.165-2.878.754-.548 1.781-.96 2.946-1.165.205 0 .411 0 .548-.069.206-.068.48-.068.754-.137q2.056-.308 2.056-1.233c0-.48-.274-.822-.754-.96a4.4 4.4 0 0 0-1.37-.205 3.2 3.2 0 0 0-1.166.206 1.36 1.36 0 0 0-.752.752h-3.152c.137-.958.548-1.85 1.302-2.466.822-.753 2.055-1.096 3.632-1.096 1.781 0 3.083.274 3.974.89.89.617 1.37 1.51 1.37 2.673v4.386c0 1.302-.206 2.261-.685 3.015-.274.685-.822 1.233-1.51 1.576zm-17.2 3.563c.006.437-.167.858-.479 1.165-.274.343-.685.48-1.165.48H8V37.025c0-2.262.616-3.769 1.919-4.591 1.233-.822 2.74-1.233 4.18-1.233.822 0 1.643.137 2.397.479.741.262 1.402.71 1.92 1.302.958 1.234 1.438 2.878 1.438 4.797 0 1.987-.483 3.631-1.439 4.865-.956 1.233-2.124 1.85-3.631 1.85-.686 0-1.44-.137-2.053-.411-.617-.343-1.165-.823-1.51-1.51v4.73m5.345-9.388c0-1.234-.205-2.193-.685-2.878q-.72-1.027-2.053-1.027c-.822 0-1.51.343-1.987 1.027-.411.617-.685 1.576-.685 2.878 0 1.233.205 2.124.685 2.741q.72 1.026 2.055 1.026c.755 0 1.51-.342 1.92-1.026.548-.685.753-1.576.753-2.741z" clip-rule="evenodd"/><defs><linearGradient id="a" x1="16.739" x2="110.089" y1="130.65" y2="99.799" gradientUnits="userSpaceOnUse"><stop stop-color="#e14a55"/><stop offset="1" stop-color="#8e278f"/></linearGradient></defs></svg>
